_includes/icons/ios-delete-button.svg

<svg fill="#666" height="50" viewBox="0 0 50 50" width="50" xmlns="http://www.w3.org/2000/svg"><path d="m25 3c-12.13842 0-22 9.86158-22 22s9.86158 22 22 22 22-9.86158 22-22-9.86158-22-22-22zm0 2c11.05754 0 20 8.94246 20 20s-8.94246 20-20 20-20-8.94246-20-20 8.94246-20 20-20zm-8.009766 10.990234a1.0001 1.0001 0 0 0 -.697265 1.716797l7.292969 7.292969-7.292969 7.292969a1.0001 1.0001 0 1 0 1.414062 1.414062l7.292969-7.292969 7.292969 7.292969a1.0001 1.0001 0 1 0 1.414062-1.414062l-7.292969-7.292969 7.292969-7.292969a1.0001 1.0001 0 0 0 -.726562-1.716797 1.0001 1.0001 0 0 0 -.6875.302735l-7.292969 7.292969-7.292969-7.292969a1.0001 1.0001 0 0 0 -.716797-.302735z"/></svg>

<svg xmlns="http://www.w3.org/2000/svg" viewBox="0 0 50 50" width="50" height="50" fill="#666"><path style="line-height:normal;text-indent:0;text-align:start;text-decoration-line:none;text-decoration-style:solid;text-decoration-color:#000;text-transform:none;block-progression:tb;isolation:auto;mix-blend-mode:normal" d="M 25 3 C 12.86158 3 3 12.86158 3 25 C 3 37.13842 12.86158 47 25 47 C 37.13842 47 47 37.13842 47 25 C 47 12.86158 37.13842 3 25 3 z M 25 5 C 36.05754 5 45 13.94246 45 25 C 45 36.05754 36.05754 45 25 45 C 13.94246 45 5 36.05754 5 25 C 5 13.94246 13.94246 5 25 5 z M 16.990234 15.990234 A 1.0001 1.0001 0 0 0 16.292969 17.707031 L 23.585938 25 L 16.292969 32.292969 A 1.0001 1.0001 0 1 0 17.707031 33.707031 L 25 26.414062 L 32.292969 33.707031 A 1.0001 1.0001 0 1 0 33.707031 32.292969 L 26.414062 25 L 33.707031 17.707031 A 1.0001 1.0001 0 0 0 32.980469 15.990234 A 1.0001 1.0001 0 0 0 32.292969 16.292969 L 25 23.585938 L 17.707031 16.292969 A 1.0001 1.0001 0 0 0 16.990234 15.990234 z"/></svg>
